/* XPM */
static char *product_logo_32[] = {
"32 32 40 1",
"  c #020a24",
". c #000119",
"o c #0f263b",
"+ c #1d4858",
"= c #255668",
"* c #05122a",
"B c #17374c",
"O c #48b2b5",
"X c #5be5d7",
"@ c #6bf5ef",
"% c #6fe4eb",
"& c #74dced",
"# c #1f5863",
"/ c #35838a",
"^ c #2d667a",
"a c #5ef6e1",
"b c #61e4dd",
"c c #59afbc",
"d c #3e939a",
"e c #3da79f",
"f c #274a62",
"g c #438196",
"h c #6ac2d6",
"i c #53d2cd",
"j c #4b8da1",
"k c #427991",
"l c #82eafd",
"m c #4dcabe",
"n c #172f48",
"o c #68bad3",
"p c #89f0ff",
"q c #5be1ee",
"r c #53c4da",
"s c #5ac5e3",
"t c #50b5d3",
"u c #51bae1",
"v c #6ccde4",
"w c #5bd5f1",
"x c #4b9aae",
"y c #1c4766",
"                                ",
"                                ",
"                                ",
"                                ",
"                                ",
"                                ",
"                                ",
"                                ",
"                                ",
"         .....       .          ",
"       ..o+=+o..     o*....     ",
"      .BOX@@%&O=..  .#X/o+^*    ",
"     .BXaXXb%%%@co.   d%%@/.    ",
"     .eaXXb%%%%&%&f....gho.     ",
"     *iXXbb%%%%%&%%jBBkl^.      ",
"      mXXb%%%%%%%&%ll%lln.      ",
"     ./@X%%%%%%%%%&&&&lo        ",
"       O%i&%%&%%&&%&&&pk.       ",
"      .*Oqrr%%%stuvlll&o.       ",
"       .*Oqwxxtwsy*khhf.        ",
"        .*^= .*^B. .  .         ",
"          ..   ..               ",
"                                ",
"                                ",
"                                ",
"                                ",
"                                ",
"                                ",
"                                ",
"                                ",
"                                ",
"                                "
};
